Sources/FrostedUI/Resources/Icons.xcassets/usd16.imageset/usd-16.svg

<svg
  width="16"
  height="16"
  viewBox="0 0 16 16"
  fill="none"
  xmlns="http://www.w3.org/2000/svg"
  data-fui-icon="true"
>
  <g
    clip-path="url(#clip0_882_644)"
    stroke="currentColor"
    stroke-width="1.5"
    stroke-linecap="round"
    stroke-linejoin="round"
  >
    <path
      d="M5.75 10.75H9.375C10.1344 10.75 10.75 10.1344 10.75 9.375V9.375C10.75 8.61561 10.1344 8 9.375 8H6.625C5.86561 8 5.25 7.38439 5.25 6.625V6.625C5.25 5.86561 5.86561 5.25 6.625 5.25H10.25"
    />
    <circle cx="8" cy="8" r="7.25" />
    <path d="M8 10.75L8 12.25M8 3.75L8 5.25" />
  </g>
  <defs>
    <clipPath id="clip0_882_644">
      <path fill="currentColor" d="M0 0H16V16H0z" />
    </clipPath>
  </defs>
</svg>

<svg xmlns="http://www.w3.org/2000/svg" width="16" height="16" fill="none" data-fui-icon="true" viewBox="0 0 16 16"><g stroke="currentColor" stroke-linecap="round" stroke-linejoin="round" stroke-width="1.5" clip-path="url(#a)"><path d="M5.75 10.75h3.625c.76 0 1.375-.616 1.375-1.375v0c0-.76-.616-1.375-1.375-1.375h-2.75c-.76 0-1.375-.616-1.375-1.375v0c0-.76.616-1.375 1.375-1.375h3.625"/><circle cx="8" cy="8" r="7.25"/><path d="M8 10.75v1.5m0-8.5v1.5"/></g><defs><clipPath id="a"><path fill="currentColor" d="M0 0h16v16H0z"/></clipPath></defs></svg>
